X: 10026
T: ERIC'S JIG
C: Bob McQuillen 17 June 93
B: Bob's Note Book 10 #26
%R: jig
Z: 2021 John Chambers <jc:trillian.mit.edu>
M: 6/8
L: 1/8
K: D
A \
| ded cBA | Bcd A2F | GAB AFA | dAF E2F |\
| DFA AFD | GAB B2d | cde eag | fdd d2 :|
|: e \
| fgf fed | Bcd A2G | FAB AdB | AFD E2F |\
| DEF EFG | FGA G2B | ABd cBc | edd d2 :|
%%begintext align
%% April Limber's cousin
%% is Melody Brown, and when Melody comes to the Peterborough
%% dance, she brings her nice son Eric with her. So I
%% just thought it would be good for him to have a tune
%% of his own. And so here it is! OK, Eric?
%%endtext

%%sep 1 1 500

%%sep 1 1 500

